!!!COM:	Josquin des Pres
**kern	**kern
*part2	*part1
*staff2	*staff1
*clefGv2	*clefG2
*k[b-]	*k[b-]
*M2/1	*M2/1
=1-	=1-
0r	1.g
.	4f
.	4e
=2	=2
0r	2f
.	2g
.	1c
=3	=3
1.c	1r
.	[1g
4B-	.
4A	.
=4	=4
2B-	1g]
2c	.
1F	1a
=5	=5
1r	2g
.	1a
[1c	.
.	4g
.	4f
=6	=6
1c]	1e
1d	1d
=7	=7
2c	1r
1d	.
.	[1a
4c	.
4B-	.
=8	=8
1A	1a]
1G	1b-
=9	=9
1r	2a
.	1b-
[1d	.
.	4a
.	4g
=10	=10
1d]	1f
1e	1g
=11	=11
2d	1r
1e	.
.	1c
4d	.
4c	.
=12	=12
1B-	1d
1c	1e
=13	=13
2r	1f
2F	.
2G	2e
2A	[2f
=14	=14
2.B-	4f]
.	4e
.	4d
4A	4c
4B-	4d
4A	4c
4B-	[2g
4G	.
=15	=15
2.c	4g]
.	4f
.	4e
4B-	4d
4c	4e
4B-	4d
4c	[2a
4A	.
=16	=16
2.d	4a]
.	4g
.	4f
4c	4e
2.A	4f
.	4e
.	[2a
4B-	.
=17	=17
2.c	2a]
.	1g
4B-	.
4G	.
4A	.
4B-	[2f
4c	.
=18	=18
2d	2f]
1c	2e
.	1d
2B-	.
=19	=19
0c	0c
==	==
*-	*-
